images/50741802.svg

<?xml version="1.0" encoding="UTF-8"?>
<svg xmlns="http://www.w3.org/2000/svg" xmlns:xlink="http://www.w3.org/1999/xlink" width="300pt" height="300pt" viewBox="0 0 300 300" version="1.1">
<defs>
<g>
<symbol overflow="visible" id="glyph0-0">
<path style="stroke:none;" d="M 0.453125 1.59375 L 0.453125 -6.34375 L 4.953125 -6.34375 L 4.953125 1.59375 Z M 0.953125 1.09375 L 4.453125 1.09375 L 4.453125 -5.84375 L 0.953125 -5.84375 Z M 0.953125 1.09375 "/>
</symbol>
<symbol overflow="visible" id="glyph0-1">
<path style="stroke:none;" d="M 5.796875 -6.0625 L 5.796875 -5.125 C 5.492188 -5.394531 5.171875 -5.597656 4.828125 -5.734375 C 4.492188 -5.878906 4.140625 -5.953125 3.765625 -5.953125 C 3.015625 -5.953125 2.4375 -5.722656 2.03125 -5.265625 C 1.632812 -4.804688 1.4375 -4.144531 1.4375 -3.28125 C 1.4375 -2.414062 1.632812 -1.753906 2.03125 -1.296875 C 2.4375 -0.835938 3.015625 -0.609375 3.765625 -0.609375 C 4.140625 -0.609375 4.492188 -0.675781 4.828125 -0.8125 C 5.171875 -0.945312 5.492188 -1.15625 5.796875 -1.4375 L 5.796875 -0.5 C 5.484375 -0.289062 5.15625 -0.132812 4.8125 -0.03125 C 4.46875 0.0703125 4.097656 0.125 3.703125 0.125 C 2.710938 0.125 1.929688 -0.175781 1.359375 -0.78125 C 0.785156 -1.394531 0.5 -2.226562 0.5 -3.28125 C 0.5 -4.332031 0.785156 -5.160156 1.359375 -5.765625 C 1.929688 -6.378906 2.710938 -6.6875 3.703125 -6.6875 C 4.097656 -6.6875 4.46875 -6.632812 4.8125 -6.53125 C 5.164062 -6.425781 5.492188 -6.269531 5.796875 -6.0625 Z M 5.796875 -6.0625 "/>
</symbol>
<symbol overflow="visible" id="glyph0-2">
<path style="stroke:none;" d="M 0.84375 -6.84375 L 1.65625 -6.84375 L 1.65625 0 L 0.84375 0 Z M 0.84375 -6.84375 "/>
</symbol>
<symbol overflow="visible" id="glyph0-3">
<path style="stroke:none;" d="M 0.890625 -6.5625 L 2.078125 -6.5625 L 4.984375 -1.078125 L 4.984375 -6.5625 L 5.84375 -6.5625 L 5.84375 0 L 4.65625 0 L 1.75 -5.484375 L 1.75 0 L 0.890625 0 Z M 0.890625 -6.5625 "/>
</symbol>
<symbol overflow="visible" id="glyph0-4">
<path style="stroke:none;" d="M 0.890625 -6.5625 L 1.765625 -6.5625 L 1.765625 -3.875 L 5 -3.875 L 5 -6.5625 L 5.890625 -6.5625 L 5.890625 0 L 5 0 L 5 -3.125 L 1.765625 -3.125 L 1.765625 0 L 0.890625 0 Z M 0.890625 -6.5625 "/>
</symbol>
<symbol overflow="visible" id="glyph0-5">
<path style="stroke:none;" d="M 3.546875 -5.953125 C 2.898438 -5.953125 2.382812 -5.710938 2 -5.234375 C 1.625 -4.753906 1.4375 -4.101562 1.4375 -3.28125 C 1.4375 -2.445312 1.625 -1.789062 2 -1.3125 C 2.382812 -0.832031 2.898438 -0.59375 3.546875 -0.59375 C 4.191406 -0.59375 4.703125 -0.832031 5.078125 -1.3125 C 5.453125 -1.789062 5.640625 -2.445312 5.640625 -3.28125 C 5.640625 -4.101562 5.453125 -4.753906 5.078125 -5.234375 C 4.703125 -5.710938 4.191406 -5.953125 3.546875 -5.953125 Z M 3.546875 -6.6875 C 4.460938 -6.6875 5.195312 -6.375 5.75 -5.75 C 6.300781 -5.132812 6.578125 -4.3125 6.578125 -3.28125 C 6.578125 -2.238281 6.300781 -1.410156 5.75 -0.796875 C 5.195312 -0.179688 4.460938 0.125 3.546875 0.125 C 2.617188 0.125 1.878906 -0.179688 1.328125 -0.796875 C 0.773438 -1.410156 0.5 -2.238281 0.5 -3.28125 C 0.5 -4.3125 0.773438 -5.132812 1.328125 -5.75 C 1.878906 -6.375 2.617188 -6.6875 3.546875 -6.6875 Z M 3.546875 -6.6875 "/>
</symbol>
<symbol overflow="visible" id="glyph0-6">
<path style="stroke:none;" d="M 0.890625 -6.5625 L 4.65625 -6.5625 L 4.65625 -5.8125 L 1.765625 -5.8125 L 1.765625 -3.875 L 4.375 -3.875 L 4.375 -3.140625 L 1.765625 -3.140625 L 1.765625 0 L 0.890625 0 Z M 0.890625 -6.5625 "/>
</symbol>
</g>
</defs>
<g id="surface16241">
<rect x="0" y="0" width="300" height="300" style="fill:rgb(100%,100%,100%);fill-opacity:1;stroke:none;"/>
<path style="fill:none;stroke-width:1.2;stroke-linecap:butt;stroke-linejoin:miter;stroke:rgb(0%,80%,0%);stroke-opacity:1;stroke-miterlimit:10;" d="M 149.394531 155.242188 L 138.289062 153.992188 "/>
<path style="fill:none;stroke-width:1.2;stroke-linecap:butt;stroke-linejoin:miter;stroke:rgb(0%,0%,0%);stroke-opacity:1;stroke-miterlimit:10;" d="M 138.289062 153.992188 L 127.1875 152.742188 "/>
<path style=" stroke:none;fill-rule:nonzero;fill:rgb(100%,100%,100%);fill-opacity:1;" d="M 144.394531 149.742188 L 154.394531 149.742188 L 154.394531 160.742188 L 144.394531 160.742188 Z M 144.394531 149.742188 "/>
<g style="fill:rgb(0%,80%,0%);fill-opacity:1;">
  <use xlink:href="#glyph0-1" x="144.394531" y="158.405273"/>
  <use xlink:href="#glyph0-2" x="150.908203" y="158.405273"/>
</g>
<path style="fill:none;stroke-width:1.2;stroke-linecap:butt;stroke-linejoin:miter;stroke:rgb(0%,0%,0%);stroke-opacity:1;stroke-miterlimit:10;" d="M 127.1875 152.742188 L 113.921875 170.722656 "/>
<path style="fill:none;stroke-width:1.2;stroke-linecap:butt;stroke-linejoin:miter;stroke:rgb(0%,0%,0%);stroke-opacity:1;stroke-miterlimit:10;" d="M 121.628906 151.417969 L 111.015625 165.804688 "/>
<path style="fill:none;stroke-width:1.2;stroke-linecap:butt;stroke-linejoin:miter;stroke:rgb(0%,0%,0%);stroke-opacity:1;stroke-miterlimit:10;" d="M 118.25 132.261719 L 127.1875 152.742188 "/>
<path style="fill:none;stroke-width:1.2;stroke-linecap:butt;stroke-linejoin:miter;stroke:rgb(0%,0%,0%);stroke-opacity:1;stroke-miterlimit:10;" d="M 113.921875 170.722656 L 91.714844 168.222656 "/>
<path style="fill:none;stroke-width:1.2;stroke-linecap:butt;stroke-linejoin:miter;stroke:rgb(0%,0%,0%);stroke-opacity:1;stroke-miterlimit:10;" d="M 91.714844 168.222656 L 83.355469 175.640625 "/>
<path style="fill:none;stroke-width:1.2;stroke-linecap:butt;stroke-linejoin:miter;stroke:rgb(0%,0%,100%);stroke-opacity:1;stroke-miterlimit:10;" d="M 83.355469 175.640625 L 75 183.054688 "/>
<path style="fill:none;stroke-width:1.2;stroke-linecap:butt;stroke-linejoin:miter;stroke:rgb(0%,0%,0%);stroke-opacity:1;stroke-miterlimit:10;" d="M 82.777344 147.746094 L 91.714844 168.222656 "/>
<path style="fill:none;stroke-width:1.2;stroke-linecap:butt;stroke-linejoin:miter;stroke:rgb(0%,0%,0%);stroke-opacity:1;stroke-miterlimit:10;" d="M 88.488281 147.6875 L 95.640625 164.074219 "/>
<path style="fill:none;stroke-width:1.2;stroke-linecap:butt;stroke-linejoin:miter;stroke:rgb(0%,0%,100%);stroke-opacity:1;stroke-miterlimit:10;" d="M 75 183.054688 L 65.363281 177.398438 "/>
<path style="fill:none;stroke-width:1.2;stroke-linecap:butt;stroke-linejoin:miter;stroke:rgb(0%,0%,0%);stroke-opacity:1;stroke-miterlimit:10;" d="M 65.363281 177.398438 L 55.730469 171.738281 "/>
<path style="fill:none;stroke-width:1.2;stroke-linecap:butt;stroke-linejoin:miter;stroke:rgb(0%,0%,100%);stroke-opacity:1;stroke-miterlimit:10;" d="M 75.734375 177.386719 L 68.027344 172.863281 "/>
<path style="fill:none;stroke-width:1.2;stroke-linecap:butt;stroke-linejoin:miter;stroke:rgb(0%,0%,0%);stroke-opacity:1;stroke-miterlimit:10;" d="M 68.027344 172.863281 L 60.320312 168.335938 "/>
<path style=" stroke:none;fill-rule:nonzero;fill:rgb(100%,100%,100%);fill-opacity:1;" d="M 72 177.554688 L 79 177.554688 L 79 188.554688 L 72 188.554688 Z M 72 177.554688 "/>
<g style="fill:rgb(0%,0%,100%);fill-opacity:1;">
  <use xlink:href="#glyph0-3" x="72" y="186.217773"/>
</g>
<path style="fill:none;stroke-width:1.2;stroke-linecap:butt;stroke-linejoin:miter;stroke:rgb(0%,0%,0%);stroke-opacity:1;stroke-miterlimit:10;" d="M 55.730469 171.738281 L 58.132812 160.828125 "/>
<path style="fill:none;stroke-width:1.2;stroke-linecap:butt;stroke-linejoin:miter;stroke:rgb(0%,0%,100%);stroke-opacity:1;stroke-miterlimit:10;" d="M 58.132812 160.828125 L 60.535156 149.917969 "/>
<path style="fill:none;stroke-width:1.2;stroke-linecap:butt;stroke-linejoin:miter;stroke:rgb(0%,0%,0%);stroke-opacity:1;stroke-miterlimit:10;" d="M 55.730469 171.738281 L 35.25 180.675781 "/>
<path style="fill:none;stroke-width:1.2;stroke-linecap:butt;stroke-linejoin:miter;stroke:rgb(0%,0%,100%);stroke-opacity:1;stroke-miterlimit:10;" d="M 60.535156 149.917969 L 71.65625 148.832031 "/>
<path style="fill:none;stroke-width:1.2;stroke-linecap:butt;stroke-linejoin:miter;stroke:rgb(0%,0%,0%);stroke-opacity:1;stroke-miterlimit:10;" d="M 71.65625 148.832031 L 82.777344 147.746094 "/>
<path style=" stroke:none;fill-rule:nonzero;fill:rgb(100%,100%,100%);fill-opacity:1;" d="M 53.535156 144.417969 L 67.535156 144.417969 L 67.535156 155.417969 L 53.535156 155.417969 Z M 53.535156 144.417969 "/>
<g style="fill:rgb(0%,0%,100%);fill-opacity:1;">
  <use xlink:href="#glyph0-3" x="53.535156" y="153.081055"/>
  <use xlink:href="#glyph0-4" x="60.512695" y="153.081055"/>
</g>
<path style="fill:none;stroke-width:1.2;stroke-linecap:butt;stroke-linejoin:miter;stroke:rgb(0%,0%,0%);stroke-opacity:1;stroke-miterlimit:10;" d="M 82.777344 147.746094 L 96.042969 129.761719 "/>
<path style="fill:none;stroke-width:1.2;stroke-linecap:butt;stroke-linejoin:miter;stroke:rgb(0%,0%,0%);stroke-opacity:1;stroke-miterlimit:10;" d="M 96.042969 129.761719 L 118.25 132.261719 "/>
<path style="fill:none;stroke-width:1.2;stroke-linecap:butt;stroke-linejoin:miter;stroke:rgb(0%,0%,0%);stroke-opacity:1;stroke-miterlimit:10;" d="M 97.675781 135.238281 L 115.441406 137.238281 "/>
<path style="fill:none;stroke-width:1.2;stroke-linecap:butt;stroke-linejoin:miter;stroke:rgb(0%,0%,0%);stroke-opacity:1;stroke-miterlimit:10;" d="M 118.25 132.261719 L 131.515625 114.28125 "/>
<path style="fill:none;stroke-width:1.2;stroke-linecap:butt;stroke-linejoin:miter;stroke:rgb(0%,0%,0%);stroke-opacity:1;stroke-miterlimit:10;" d="M 133.925781 113.230469 L 129.457031 102.988281 "/>
<path style="fill:none;stroke-width:1.2;stroke-linecap:butt;stroke-linejoin:miter;stroke:rgb(100%,0%,0%);stroke-opacity:1;stroke-miterlimit:10;" d="M 129.457031 102.988281 L 124.988281 92.75 "/>
<path style="fill:none;stroke-width:1.2;stroke-linecap:butt;stroke-linejoin:miter;stroke:rgb(0%,0%,0%);stroke-opacity:1;stroke-miterlimit:10;" d="M 129.105469 115.332031 L 124.636719 105.09375 "/>
<path style="fill:none;stroke-width:1.2;stroke-linecap:butt;stroke-linejoin:miter;stroke:rgb(100%,0%,0%);stroke-opacity:1;stroke-miterlimit:10;" d="M 124.636719 105.09375 L 120.167969 94.851562 "/>
<path style="fill:none;stroke-width:1.2;stroke-linecap:butt;stroke-linejoin:miter;stroke:rgb(0%,0%,0%);stroke-opacity:1;stroke-miterlimit:10;" d="M 131.515625 114.28125 L 153.722656 116.78125 "/>
<path style=" stroke:none;fill-rule:nonzero;fill:rgb(100%,100%,100%);fill-opacity:1;" d="M 114.578125 88.300781 L 122.578125 88.300781 L 122.578125 99.300781 L 114.578125 99.300781 Z M 114.578125 88.300781 "/>
<g style="fill:rgb(100%,0%,0%);fill-opacity:1;">
  <use xlink:href="#glyph0-5" x="114.578125" y="96.963867"/>
</g>
<path style="fill:none;stroke-width:1.2;stroke-linecap:butt;stroke-linejoin:miter;stroke:rgb(0%,0%,0%);stroke-opacity:1;stroke-miterlimit:10;" d="M 153.722656 116.78125 L 162.660156 137.261719 "/>
<path style="fill:none;stroke-width:1.2;stroke-linecap:butt;stroke-linejoin:miter;stroke:rgb(0%,0%,0%);stroke-opacity:1;stroke-miterlimit:10;" d="M 159.433594 116.726562 L 166.585938 133.109375 "/>
<path style="fill:none;stroke-width:1.2;stroke-linecap:butt;stroke-linejoin:miter;stroke:rgb(0%,0%,0%);stroke-opacity:1;stroke-miterlimit:10;" d="M 166.988281 98.800781 L 153.722656 116.78125 "/>
<path style="fill:none;stroke-width:1.2;stroke-linecap:butt;stroke-linejoin:miter;stroke:rgb(0%,0%,0%);stroke-opacity:1;stroke-miterlimit:10;" d="M 162.660156 137.261719 L 184.867188 139.761719 "/>
<path style="fill:none;stroke-width:1.2;stroke-linecap:butt;stroke-linejoin:miter;stroke:rgb(0%,0%,0%);stroke-opacity:1;stroke-miterlimit:10;" d="M 184.867188 139.761719 L 198.132812 121.777344 "/>
<path style="fill:none;stroke-width:1.2;stroke-linecap:butt;stroke-linejoin:miter;stroke:rgb(0%,0%,0%);stroke-opacity:1;stroke-miterlimit:10;" d="M 181.960938 134.839844 L 192.574219 120.457031 "/>
<path style="fill:none;stroke-width:1.2;stroke-linecap:butt;stroke-linejoin:miter;stroke:rgb(0%,0%,0%);stroke-opacity:1;stroke-miterlimit:10;" d="M 198.132812 121.777344 L 193.664062 111.539062 "/>
<path style="fill:none;stroke-width:1.2;stroke-linecap:butt;stroke-linejoin:miter;stroke:rgb(0%,0%,100%);stroke-opacity:1;stroke-miterlimit:10;" d="M 193.664062 111.539062 L 189.195312 101.296875 "/>
<path style="fill:none;stroke-width:1.2;stroke-linecap:butt;stroke-linejoin:miter;stroke:rgb(0%,0%,0%);stroke-opacity:1;stroke-miterlimit:10;" d="M 198.132812 121.777344 L 209.234375 123.027344 "/>
<path style="fill:none;stroke-width:1.2;stroke-linecap:butt;stroke-linejoin:miter;stroke:rgb(0%,0%,100%);stroke-opacity:1;stroke-miterlimit:10;" d="M 209.234375 123.027344 L 220.339844 124.277344 "/>
<path style="fill:none;stroke-width:1.2;stroke-linecap:butt;stroke-linejoin:miter;stroke:rgb(0%,0%,100%);stroke-opacity:1;stroke-miterlimit:10;" d="M 189.195312 101.296875 L 178.09375 100.050781 "/>
<path style="fill:none;stroke-width:1.2;stroke-linecap:butt;stroke-linejoin:miter;stroke:rgb(0%,0%,0%);stroke-opacity:1;stroke-miterlimit:10;" d="M 178.09375 100.050781 L 166.988281 98.800781 "/>
<path style="fill:none;stroke-width:1.2;stroke-linecap:butt;stroke-linejoin:miter;stroke:rgb(0%,0%,100%);stroke-opacity:1;stroke-miterlimit:10;" d="M 186.386719 106.273438 L 177.503906 105.273438 "/>
<path style="fill:none;stroke-width:1.2;stroke-linecap:butt;stroke-linejoin:miter;stroke:rgb(0%,0%,0%);stroke-opacity:1;stroke-miterlimit:10;" d="M 177.503906 105.273438 L 168.621094 104.273438 "/>
<path style=" stroke:none;fill-rule:nonzero;fill:rgb(100%,100%,100%);fill-opacity:1;" d="M 186.195312 95.796875 L 193.195312 95.796875 L 193.195312 106.796875 L 186.195312 106.796875 Z M 186.195312 95.796875 "/>
<g style="fill:rgb(0%,0%,100%);fill-opacity:1;">
  <use xlink:href="#glyph0-3" x="186.195312" y="104.459961"/>
</g>
<path style="fill:none;stroke-width:1.2;stroke-linecap:butt;stroke-linejoin:miter;stroke:rgb(0%,0%,100%);stroke-opacity:1;stroke-miterlimit:10;" d="M 220.339844 124.277344 L 224.808594 134.519531 "/>
<path style="fill:none;stroke-width:1.2;stroke-linecap:butt;stroke-linejoin:miter;stroke:rgb(0%,0%,0%);stroke-opacity:1;stroke-miterlimit:10;" d="M 224.808594 134.519531 L 229.277344 144.757812 "/>
<path style=" stroke:none;fill-rule:nonzero;fill:rgb(100%,100%,100%);fill-opacity:1;" d="M 213.339844 118.777344 L 227.339844 118.777344 L 227.339844 129.777344 L 213.339844 129.777344 Z M 213.339844 118.777344 "/>
<g style="fill:rgb(0%,0%,100%);fill-opacity:1;">
  <use xlink:href="#glyph0-3" x="213.339844" y="127.44043"/>
  <use xlink:href="#glyph0-4" x="220.317383" y="127.44043"/>
</g>
<path style="fill:none;stroke-width:1.2;stroke-linecap:butt;stroke-linejoin:miter;stroke:rgb(0%,0%,0%);stroke-opacity:1;stroke-miterlimit:10;" d="M 229.277344 144.757812 L 216.011719 162.738281 "/>
<path style="fill:none;stroke-width:1.2;stroke-linecap:butt;stroke-linejoin:miter;stroke:rgb(0%,0%,0%);stroke-opacity:1;stroke-miterlimit:10;" d="M 232.179688 149.679688 L 221.566406 164.0625 "/>
<path style="fill:none;stroke-width:1.2;stroke-linecap:butt;stroke-linejoin:miter;stroke:rgb(0%,0%,0%);stroke-opacity:1;stroke-miterlimit:10;" d="M 251.484375 147.257812 L 229.277344 144.757812 "/>
<path style="fill:none;stroke-width:1.2;stroke-linecap:butt;stroke-linejoin:miter;stroke:rgb(0%,0%,0%);stroke-opacity:1;stroke-miterlimit:10;" d="M 216.011719 162.738281 L 224.949219 183.21875 "/>
<path style="fill:none;stroke-width:1.2;stroke-linecap:butt;stroke-linejoin:miter;stroke:rgb(0%,0%,0%);stroke-opacity:1;stroke-miterlimit:10;" d="M 224.949219 183.21875 L 247.152344 185.71875 "/>
<path style="fill:none;stroke-width:1.2;stroke-linecap:butt;stroke-linejoin:miter;stroke:rgb(0%,0%,0%);stroke-opacity:1;stroke-miterlimit:10;" d="M 227.757812 178.246094 L 245.523438 180.242188 "/>
<path style="fill:none;stroke-width:1.2;stroke-linecap:butt;stroke-linejoin:miter;stroke:rgb(0%,0%,0%);stroke-opacity:1;stroke-miterlimit:10;" d="M 247.152344 185.71875 L 251.625 195.957031 "/>
<path style="fill:none;stroke-width:1.2;stroke-linecap:butt;stroke-linejoin:miter;stroke:rgb(20%,80%,80%);stroke-opacity:1;stroke-miterlimit:10;" d="M 251.625 195.957031 L 256.09375 206.199219 "/>
<path style="fill:none;stroke-width:1.2;stroke-linecap:butt;stroke-linejoin:miter;stroke:rgb(0%,0%,0%);stroke-opacity:1;stroke-miterlimit:10;" d="M 247.152344 185.71875 L 260.421875 167.738281 "/>
<path style=" stroke:none;fill-rule:nonzero;fill:rgb(100%,100%,100%);fill-opacity:1;" d="M 253.09375 200.699219 L 259.09375 200.699219 L 259.09375 211.699219 L 253.09375 211.699219 Z M 253.09375 200.699219 "/>
<g style="fill:rgb(20%,80%,80%);fill-opacity:1;">
  <use xlink:href="#glyph0-6" x="253.09375" y="209.362305"/>
</g>
<path style="fill:none;stroke-width:1.2;stroke-linecap:butt;stroke-linejoin:miter;stroke:rgb(0%,0%,0%);stroke-opacity:1;stroke-miterlimit:10;" d="M 260.421875 167.738281 L 251.484375 147.257812 "/>
<path style="fill:none;stroke-width:1.2;stroke-linecap:butt;stroke-linejoin:miter;stroke:rgb(0%,0%,0%);stroke-opacity:1;stroke-miterlimit:10;" d="M 254.707031 167.792969 L 247.558594 151.410156 "/>
<path style="fill:none;stroke-width:1.2;stroke-linecap:butt;stroke-linejoin:miter;stroke:rgb(0%,0%,0%);stroke-opacity:1;stroke-miterlimit:10;" d="M 251.484375 147.257812 L 258.117188 138.265625 "/>
<path style="fill:none;stroke-width:1.2;stroke-linecap:butt;stroke-linejoin:miter;stroke:rgb(20%,80%,80%);stroke-opacity:1;stroke-miterlimit:10;" d="M 258.117188 138.265625 L 264.75 129.277344 "/>
<path style=" stroke:none;fill-rule:nonzero;fill:rgb(100%,100%,100%);fill-opacity:1;" d="M 261.75 123.777344 L 267.75 123.777344 L 267.75 134.777344 L 261.75 134.777344 Z M 261.75 123.777344 "/>
<g style="fill:rgb(20%,80%,80%);fill-opacity:1;">
  <use xlink:href="#glyph0-6" x="261.75" y="132.44043"/>
</g>
</g>
</svg>

<svg xmlns="http://www.w3.org/2000/svg" xmlns:xlink="http://www.w3.org/1999/xlink" width="300pt" height="300pt" viewBox="0 0 300 300"><defs><symbol overflow="visible"><path d="M.453 1.594v-7.938h4.5v7.938zm.5-.5h3.5v-6.938h-3.5zm0 0"/></symbol><symbol overflow="visible" id="a"><path d="M5.797-6.063v.938c-.305-.27-.625-.473-.97-.61-.335-.144-.686-.218-1.06-.218-.75 0-1.33.23-1.736.687-.397.46-.592 1.12-.592 1.985 0 .866.195 1.526.593 1.983.408.46.986.688 1.736.688.375 0 .726-.066 1.062-.203.344-.132.664-.343.97-.625V-.5c-.314.21-.642.367-.986.47-.343.1-.714.155-1.11.155-.99 0-1.772-.3-2.343-.906C.784-1.396.5-2.228.5-3.28c0-1.052.285-1.88.86-2.486.57-.613 1.35-.92 2.343-.92.395-.002.766.053 1.11.155.35.104.68.26.984.468zm0 0"/></symbol><symbol overflow="visible" id="b"><path d="M.844-6.844h.812V0H.844zm0 0"/></symbol><symbol overflow="visible" id="c"><path d="M.89-6.563H2.08l2.906 5.485v-5.484h.86V0H4.656L1.75-5.484V0H.89zm0 0"/></symbol><symbol overflow="visible" id="d"><path d="M.89-6.563h.876v2.688H5v-2.688h.89V0H5v-3.125H1.766V0H.89zm0 0"/></symbol><symbol overflow="visible" id="e"><path d="M3.547-5.953c-.65 0-1.164.242-1.547.72-.375.48-.563 1.13-.563 1.952 0 .835.188 1.49.563 1.967.383.48.898.72 1.547.72.644 0 1.156-.24 1.53-.72.376-.476.564-1.132.564-1.968 0-.822-.187-1.474-.562-1.954-.375-.477-.887-.72-1.53-.72zm0-.734c.914 0 1.648.312 2.203.937.55.617.828 1.438.828 2.47 0 1.042-.277 1.87-.828 2.483-.555.617-1.29.922-2.203.922-.93 0-1.668-.305-2.22-.922C.774-1.41.5-2.237.5-3.28c0-1.033.273-1.853.828-2.47.55-.625 1.29-.938 2.22-.938zm0 0"/></symbol><symbol overflow="visible" id="f"><path d="M.89-6.563h3.766v.75h-2.89v1.938h2.61v.734h-2.61V0H.89zm0 0"/></symbol></defs><g><path fill="#fff" d="M0 0h300v300H0z"/><path d="M149.395 155.242l-11.106-1.25" stroke-width="1.2" stroke="#0c0" stroke-miterlimit="10" fill="none"/><path d="M138.29 153.992l-11.102-1.25" stroke-width="1.2" stroke="#000" stroke-miterlimit="10" fill="none"/><path d="M144.395 149.742h10v11h-10zm0 0" fill="#fff"/><g fill="#0c0"><use xlink:href="#a" x="144.395" y="158.405"/><use xlink:href="#b" x="150.908" y="158.405"/></g><path d="M127.188 152.742l-13.266 17.98M121.63 151.418l-10.614 14.387M118.25 132.262l8.938 20.48M113.922 170.723l-22.207-2.5M91.715 168.223l-8.36 7.418" stroke-width="1.2" stroke="#000" stroke-miterlimit="10" fill="none"/><path d="M83.355 175.64L75 183.056" stroke-width="1.2" stroke="#00f" stroke-miterlimit="10" fill="none"/><path d="M82.777 147.746l8.938 20.477M88.488 147.688l7.153 16.386" stroke-width="1.2" stroke="#000" stroke-miterlimit="10" fill="none"/><path d="M75 183.055l-9.637-5.657" stroke-width="1.2" stroke="#00f" stroke-miterlimit="10" fill="none"/><path d="M65.363 177.398l-9.633-5.66" stroke-width="1.2" stroke="#000" stroke-miterlimit="10" fill="none"/><path d="M75.734 177.387l-7.707-4.524" stroke-width="1.2" stroke="#00f" stroke-miterlimit="10" fill="none"/><path d="M68.027 172.863l-7.707-4.527" stroke-width="1.2" stroke="#000" stroke-miterlimit="10" fill="none"/><path d="M72 177.555h7v11h-7zm0 0" fill="#fff"/><use xlink:href="#c" x="72" y="186.218" fill="#00f"/><path d="M55.73 171.738l2.403-10.91" stroke-width="1.2" stroke="#000" stroke-miterlimit="10" fill="none"/><path d="M58.133 160.828l2.402-10.91" stroke-width="1.2" stroke="#00f" stroke-miterlimit="10" fill="none"/><path d="M55.73 171.738l-20.48 8.938" stroke-width="1.2" stroke="#000" stroke-miterlimit="10" fill="none"/><path d="M60.535 149.918l11.12-1.086" stroke-width="1.2" stroke="#00f" stroke-miterlimit="10" fill="none"/><path d="M71.656 148.832l11.12-1.086" stroke-width="1.2" stroke="#000" stroke-miterlimit="10" fill="none"/><path d="M53.535 144.418h14v11h-14zm0 0" fill="#fff"/><g fill="#00f"><use xlink:href="#c" x="53.535" y="153.081"/><use xlink:href="#d" x="60.513" y="153.081"/></g><path d="M82.777 147.746l13.266-17.984M96.043 129.762l22.207 2.5M97.676 135.238l17.765 2M118.25 132.262l13.266-17.98M133.926 113.23l-4.47-10.242" stroke-width="1.2" stroke="#000" stroke-miterlimit="10" fill="none"/><path d="M129.457 102.988l-4.47-10.238" stroke-width="1.2" stroke="#f00" stroke-miterlimit="10" fill="none"/><path d="M129.105 115.332l-4.468-10.238" stroke-width="1.2" stroke="#000" stroke-miterlimit="10" fill="none"/><path d="M124.637 105.094l-4.47-10.242" stroke-width="1.2" stroke="#f00" stroke-miterlimit="10" fill="none"/><path d="M131.516 114.28l22.207 2.5" stroke-width="1.2" stroke="#000" stroke-miterlimit="10" fill="none"/><path d="M114.578 88.3h8v11h-8zm0 0" fill="#fff"/><use xlink:href="#e" x="114.578" y="96.964" fill="#f00"/><path d="M153.723 116.78l8.937 20.482M159.434 116.727l7.152 16.382M166.988 98.8l-13.265 17.98M162.66 137.262l22.207 2.5M184.867 139.762l13.266-17.985M181.96 134.84l10.614-14.383M198.133 121.777l-4.47-10.238" stroke-width="1.2" stroke="#000" stroke-miterlimit="10" fill="none"/><path d="M193.664 111.54l-4.47-10.243" stroke-width="1.2" stroke="#00f" stroke-miterlimit="10" fill="none"/><path d="M198.133 121.777l11.1 1.25" stroke-width="1.2" stroke="#000" stroke-miterlimit="10" fill="none"/><path d="M209.234 123.027l11.106 1.25M189.195 101.297l-11.1-1.246" stroke-width="1.2" stroke="#00f" stroke-miterlimit="10" fill="none"/><path d="M178.094 100.05l-11.106-1.25" stroke-width="1.2" stroke="#000" stroke-miterlimit="10" fill="none"/><path d="M186.387 106.273l-8.883-1" stroke-width="1.2" stroke="#00f" stroke-miterlimit="10" fill="none"/><path d="M177.504 105.273l-8.883-1" stroke-width="1.2" stroke="#000" stroke-miterlimit="10" fill="none"/><path d="M186.195 95.797h7v11h-7zm0 0" fill="#fff"/><use xlink:href="#c" x="186.195" y="104.46" fill="#00f"/><path d="M220.34 124.277l4.47 10.243" stroke-width="1.2" stroke="#00f" stroke-miterlimit="10" fill="none"/><path d="M224.81 134.52l4.467 10.238" stroke-width="1.2" stroke="#000" stroke-miterlimit="10" fill="none"/><path d="M213.34 118.777h14v11h-14zm0 0" fill="#fff"/><g fill="#00f"><use xlink:href="#c" x="213.34" y="127.44"/><use xlink:href="#d" x="220.317" y="127.44"/></g><path d="M229.277 144.758l-13.265 17.98M232.18 149.68l-10.614 14.382M251.484 147.258l-22.207-2.5M216.012 162.738l8.937 20.48M224.95 183.22l22.202 2.5M227.758 178.246l17.765 1.996M247.152 185.72l4.473 10.237" stroke-width="1.2" stroke="#000" stroke-miterlimit="10" fill="none"/><path d="M251.625 195.957l4.47 10.242" stroke-width="1.2" stroke="#3cc" stroke-miterlimit="10" fill="none"/><path d="M247.152 185.72l13.27-17.982" stroke-width="1.2" stroke="#000" stroke-miterlimit="10" fill="none"/><path d="M253.094 200.7h6v11h-6zm0 0" fill="#fff"/><use xlink:href="#f" x="253.094" y="209.362" fill="#3cc"/><path d="M260.422 167.738l-8.938-20.48M254.707 167.793l-7.148-16.383M251.484 147.258l6.633-8.992" stroke-width="1.2" stroke="#000" stroke-miterlimit="10" fill="none"/><path d="M258.117 138.266l6.633-8.99" stroke-width="1.2" stroke="#3cc" stroke-miterlimit="10" fill="none"/><path d="M261.75 123.777h6v11h-6zm0 0" fill="#fff"/><use xlink:href="#f" x="261.75" y="132.44" fill="#3cc"/></g></svg>
